Sweet-Rainbow/icons/umbrello.svg

<?xml version="1.0" encoding="UTF-8" standalone="no"?>
<!-- Generator: Gravit.io -->

<svg
   xmlns:dc="http://purl.org/dc/elements/1.1/"
   xmlns:cc="http://creativecommons.org/ns#"
   xmlns:rdf="http://www.w3.org/1999/02/22-rdf-syntax-ns#"
   xmlns:svg="http://www.w3.org/2000/svg"
   xmlns="http://www.w3.org/2000/svg"
   xmlns:sodipodi="http://sodipodi.sourceforge.net/DTD/sodipodi-0.dtd"
   xmlns:inkscape="http://www.inkscape.org/namespaces/inkscape"
   style="isolation:isolate"
   viewBox="0 0 36 36"
   width="48"
   height="48"
   version="1.1"
   id="svg9"
   sodipodi:docname="umbrello.svg"
   inkscape:version="0.92.4 (5da689c313, 2019-01-14)">
  <metadata
     id="metadata15">
    <rdf:RDF>
      <cc:Work
         rdf:about="">
        <dc:format>image/svg+xml</dc:format>
        <dc:type
           rdf:resource="http://purl.org/dc/dcmitype/StillImage" />
        <dc:title></dc:title>
      </cc:Work>
    </rdf:RDF>
  </metadata>
  <defs
     id="defs13" />
  <sodipodi:namedview
     pagecolor="#ffffff"
     bordercolor="#666666"
     borderopacity="1"
     objecttolerance="10"
     gridtolerance="10"
     guidetolerance="10"
     inkscape:pageopacity="0"
     inkscape:pageshadow="2"
     inkscape:window-width="640"
     inkscape:window-height="480"
     id="namedview11"
     showgrid="false"
     inkscape:zoom="29.365243"
     inkscape:cx="25.325443"
     inkscape:cy="32"
     inkscape:current-layer="svg9"
     units="px" />
  <linearGradient
     id="_lgradient_22"
     x1="0"
     y1="0.5"
     x2="1"
     y2="0.5"
     gradientTransform="matrix(44,0,0,44.791,2,2)"
     gradientUnits="userSpaceOnUse">
    <stop
       offset="0%"
       stop-opacity="1"
       style="stop-color:rgb(255,153,102)"
       id="stop2" />
    <stop
       offset="98.26086956521739%"
       stop-opacity="1"
       style="stop-color:rgb(255,94,98)"
       id="stop4" />
  </linearGradient>
  <g
     id="g826"
     transform="matrix(0.80374079,0,0,0.80374079,-1.289779,-1.6073534)">
    <path
       id="path7"
       d="M 6,22 V 20 C 6.01,18.16 6.47,16.35 7.33,14.72 8.27,12.99 9.55,11.47 11.1,10.26 12.82,8.9 14.77,7.85 16.85,7.16 19.16,6.38 21.57,5.99 24,6 c 2.43,-0.01 4.84,0.38 7.15,1.16 2.08,0.69 4.03,1.74 5.75,3.1 1.55,1.21 2.83,2.73 3.77,4.46 0.86,1.63 1.32,3.44 1.33,5.28 v 2 H 38.54 C 37.79,21.58 37,21.24 36.19,20.97 c -0.94,-0.3 -1.93,-0.46 -2.92,-0.47 -0.98,0 -1.95,0.17 -2.87,0.49 -0.52,0.19 -1.03,0.42 -1.51,0.7 -0.62,-0.29 -1.25,-0.53 -1.91,-0.73 -1,-0.3 -2.04,-0.45 -3.09,-0.46 -1.04,0 -2.08,0.16 -3.07,0.47 -0.63,0.2 -1.25,0.45 -1.84,0.74 -0.65,-0.32 -1.32,-0.6 -2.01,-0.83 -0.97,-0.33 -1.98,-0.5 -3.01,-0.52 -0.99,0 -1.98,0.19 -2.9,0.57 C 10.41,21.2 9.8,21.56 9.25,22 Z M 2,22 V 20 C 2,20 2,19.99 2,19.99 2.01,17.49 2.63,15.03 3.81,12.83 5.01,10.61 6.64,8.67 8.62,7.12 10.71,5.47 13.06,4.2 15.59,3.36 18.3,2.45 21.14,1.99 24,2 c 2.86,-0.01 5.7,0.45 8.41,1.36 2.53,0.84 4.88,2.11 6.97,3.76 1.98,1.55 3.61,3.49 4.81,5.71 1.18,2.2 1.8,4.66 1.81,7.16 0,0 0,0.01 0,0.01 v 2 c 0,1.06 -0.42,2.08 -1.17,2.83 C 44.08,25.58 43.06,26 42,26 h -4 c -0.37,0 -0.73,-0.1 -1.05,-0.3 -0.63,-0.38 -1.3,-0.69 -2,-0.92 -0.55,-0.18 -1.12,-0.27 -1.69,-0.28 -0.52,0 -1.03,0.09 -1.52,0.26 -0.99,0.36 -1.87,0.98 -1.903,1.019 -0.351,0.426 -0.989,0.493 -1.422,0.151 C 28.2,25.76 27.06,25.16 25.84,24.79 25.2,24.6 24.54,24.51 23.88,24.5 c -0.63,0.01 -1.27,0.1 -1.87,0.29 -1.09,0.34 -2.1,0.91 -2.2,0.998 -0.414,0.366 -1.108,0.392 -1.548,0.059 C 18.04,25.68 16.9,25.07 15.69,24.67 c -0.57,-0.2 -1.16,-0.3 -1.76,-0.31 -0.46,0 -0.91,0.09 -1.33,0.26 -0.44,0.19 -0.85,0.47 -1.2,0.81 C 11.03,25.79 10.52,26 10,26 H 6 C 4.94,26 3.92,25.58 3.17,24.83 2.42,24.08 2,23.06 2,22 Z m 20,6 v 0 c 0,-1.104 0.896,-2 2,-2 v 0 c 1.104,0 2,0.896 2,2 v 0 12 c 0,1.75 -0.59,3.45 -1.68,4.82 -1.03,1.26 -2.57,1.99 -4.19,1.97 C 18.47,46.78 16.89,46.05 15.8,44.8 15.24,44.14 14.81,43.38 14.52,42.56 14.2,41.76 14.02,40.91 14,40.05 14,40.03 14,40.02 14,40 v -2 0 c 0,-1.104 0.896,-2 2,-2 v 0 c 1.104,0 2,0.896 2,2 v 0 1.97 c 0.01,0.41 0.1,0.81 0.26,1.18 0.13,0.38 0.32,0.74 0.58,1.05 0.34,0.38 0.82,0.59 1.32,0.59 0.4,0.01 0.78,-0.17 1.04,-0.48 C 21.72,41.65 22,40.84 22,40 Z"
       style="fill:url(#_lgradient_22);fill-rule:evenodd"
       inkscape:connector-curvature="0" />
  </g>
</svg>

<?xml version="1.0" encoding="UTF-8" standalone="no"?><!-- Generator: Gravit.io --><svg xmlns="http://www.w3.org/2000/svg" xmlns:xlink="http://www.w3.org/1999/xlink" style="isolation:isolate" viewBox="0 0 48 48" width="48pt" height="48pt"><linearGradient id="_lgradient_22" x1="0" y1="0.5" x2="1" y2="0.5" gradientTransform="matrix(44,0,0,44.791,2,2)" gradientUnits="userSpaceOnUse"><stop offset="0%" stop-opacity="1" style="stop-color:rgb(255,153,102)"/><stop offset="98.26086956521739%" stop-opacity="1" style="stop-color:rgb(255,94,98)"/></linearGradient><path d=" M 6 22 L 6 20 C 6.01 18.16 6.47 16.35 7.33 14.72 C 8.27 12.99 9.55 11.47 11.1 10.26 C 12.82 8.9 14.77 7.85 16.85 7.16 C 19.16 6.38 21.57 5.99 24 6 C 26.43 5.99 28.84 6.38 31.15 7.16 C 33.23 7.85 35.18 8.9 36.9 10.26 C 38.45 11.47 39.73 12.99 40.67 14.72 C 41.53 16.35 41.99 18.16 42 20 L 42 22 L 38.54 22 C 37.79 21.58 37 21.24 36.19 20.97 C 35.25 20.67 34.26 20.51 33.27 20.5 C 32.29 20.5 31.32 20.67 30.4 20.99 C 29.88 21.18 29.37 21.41 28.89 21.69 C 28.27 21.4 27.64 21.16 26.98 20.96 C 25.98 20.66 24.94 20.51 23.89 20.5 C 22.85 20.5 21.81 20.66 20.82 20.97 C 20.19 21.17 19.57 21.42 18.98 21.71 C 18.33 21.39 17.66 21.11 16.97 20.88 C 16 20.55 14.99 20.38 13.96 20.36 C 12.97 20.36 11.98 20.55 11.06 20.93 C 10.41 21.2 9.8 21.56 9.25 22 L 6 22 L 6 22 Z  M 2 22 L 2 20 C 2 20 2 19.99 2 19.99 C 2.01 17.49 2.63 15.03 3.81 12.83 C 5.01 10.61 6.64 8.67 8.62 7.12 C 10.71 5.47 13.06 4.2 15.59 3.36 C 18.3 2.45 21.14 1.99 24 2 C 26.86 1.99 29.7 2.45 32.41 3.36 C 34.94 4.2 37.29 5.47 39.38 7.12 C 41.36 8.67 42.99 10.61 44.19 12.83 C 45.37 15.03 45.99 17.49 46 19.99 C 46 19.99 46 20 46 20 L 46 22 C 46 23.06 45.58 24.08 44.83 24.83 C 44.08 25.58 43.06 26 42 26 L 38 26 C 37.63 26 37.27 25.9 36.95 25.7 C 36.32 25.32 35.65 25.01 34.95 24.78 C 34.4 24.6 33.83 24.51 33.26 24.5 C 32.74 24.5 32.23 24.59 31.74 24.76 C 30.75 25.12 29.87 25.74 29.837 25.779 C 29.486 26.205 28.848 26.272 28.415 25.93 C 28.2 25.76 27.06 25.16 25.84 24.79 C 25.2 24.6 24.54 24.51 23.88 24.5 C 23.25 24.51 22.61 24.6 22.01 24.79 C 20.92 25.13 19.91 25.7 19.81 25.788 C 19.396 26.154 18.702 26.18 18.262 25.847 C 18.04 25.68 16.9 25.07 15.69 24.67 C 15.12 24.47 14.53 24.37 13.93 24.36 C 13.47 24.36 13.02 24.45 12.6 24.62 C 12.16 24.81 11.75 25.09 11.4 25.43 C 11.03 25.79 10.52 26 10 26 L 6 26 C 4.94 26 3.92 25.58 3.17 24.83 C 2.42 24.08 2 23.06 2 22 L 2 22 Z  M 22 28 L 22 28 C 22 26.896 22.896 26 24 26 L 24 26 C 25.104 26 26 26.896 26 28 L 26 28 L 26 40 C 26 41.75 25.41 43.45 24.32 44.82 C 23.29 46.08 21.75 46.81 20.13 46.79 C 18.47 46.78 16.89 46.05 15.8 44.8 C 15.24 44.14 14.81 43.38 14.52 42.56 C 14.2 41.76 14.02 40.91 14 40.05 C 14 40.03 14 40.02 14 40 L 14 38 L 14 38 C 14 36.896 14.896 36 16 36 L 16 36 C 17.104 36 18 36.896 18 38 L 18 38 L 18 39.97 C 18.01 40.38 18.1 40.78 18.26 41.15 C 18.39 41.53 18.58 41.89 18.84 42.2 C 19.18 42.58 19.66 42.79 20.16 42.79 C 20.56 42.8 20.94 42.62 21.2 42.31 C 21.72 41.65 22 40.84 22 40 L 22 28 Z " fill-rule="evenodd" fill="url(#_lgradient_22)"/></svg>
